src/assets/pieces/merida/obstacle.svg

<?xml version="1.0" encoding="UTF-8" standalone="no"?>
<svg
   xmlns:dc="http://purl.org/dc/elements/1.1/"
   xmlns:cc="http://creativecommons.org/ns#"
   xmlns:rdf="http://www.w3.org/1999/02/22-rdf-syntax-ns#"
   xmlns:svg="http://www.w3.org/2000/svg"
   xmlns="http://www.w3.org/2000/svg"
   xmlns:xlink="http://www.w3.org/1999/xlink"
   xmlns:sodipodi="http://sodipodi.sourceforge.net/DTD/sodipodi-0.dtd"
   xmlns:inkscape="http://www.inkscape.org/namespaces/inkscape"
   height="110"
   width="110"
   version="1.1"
   id="svg882"
   sodipodi:docname="obstacle.svg"
   inkscape:version="1.0.2 (1.0.2+r75+1)">
  <defs
     id="defs886">
    <linearGradient
       inkscape:collect="always"
       id="linearGradient1993">
      <stop
         style="stop-color:#5e5e60;stop-opacity:1;"
         offset="0"
         id="stop1989" />
      <stop
         style="stop-color:#5e5e60;stop-opacity:0;"
         offset="1"
         id="stop1991" />
    </linearGradient>
    <linearGradient
       inkscape:collect="always"
       id="linearGradient1977">
      <stop
         style="stop-color:#5e5e5e;stop-opacity:1;"
         offset="0"
         id="stop1973" />
      <stop
         style="stop-color:#5e5e5e;stop-opacity:0;"
         offset="1"
         id="stop1975" />
    </linearGradient>
    <linearGradient
       inkscape:collect="always"
       id="linearGradient1969">
      <stop
         style="stop-color:#525252;stop-opacity:1"
         offset="0"
         id="stop1965" />
      <stop
         style="stop-color:#999999;stop-opacity:0;"
         offset="1"
         id="stop1967" />
    </linearGradient>
    <linearGradient
       inkscape:collect="always"
       id="linearGradient1961">
      <stop
         style="stop-color:#000000;stop-opacity:1;"
         offset="0"
         id="stop1957" />
      <stop
         style="stop-color:#000000;stop-opacity:0;"
         offset="1"
         id="stop1959" />
    </linearGradient>
    <linearGradient
       inkscape:collect="always"
       id="linearGradient1953">
      <stop
         style="stop-color:#000000;stop-opacity:1;"
         offset="0"
         id="stop1949" />
      <stop
         style="stop-color:#000000;stop-opacity:0;"
         offset="1"
         id="stop1951" />
    </linearGradient>
    <inkscape:path-effect
       effect="bspline"
       id="path-effect1923"
       is_visible="true"
       lpeversion="1"
       weight="33.333333"
       steps="2"
       helper_size="0"
       apply_no_weight="true"
       apply_with_weight="true"
       only_selected="false" />
    <inkscape:path-effect
       effect="bspline"
       id="path-effect1919"
       is_visible="true"
       lpeversion="1"
       weight="33.333333"
       steps="2"
       helper_size="0"
       apply_no_weight="true"
       apply_with_weight="true"
       only_selected="false" />
    <inkscape:path-effect
       effect="bspline"
       id="path-effect1915"
       is_visible="true"
       lpeversion="1"
       weight="33.333333"
       steps="2"
       helper_size="0"
       apply_no_weight="true"
       apply_with_weight="true"
       only_selected="false" />
    <inkscape:path-effect
       effect="bspline"
       id="path-effect1911"
       is_visible="true"
       lpeversion="1"
       weight="33.333333"
       steps="2"
       helper_size="0"
       apply_no_weight="true"
       apply_with_weight="true"
       only_selected="false" />
    <inkscape:path-effect
       effect="bspline"
       id="path-effect1907"
       is_visible="true"
       lpeversion="1"
       weight="33.333333"
       steps="2"
       helper_size="0"
       apply_no_weight="true"
       apply_with_weight="true"
       only_selected="false" />
    <inkscape:path-effect
       effect="bspline"
       id="path-effect1903"
       is_visible="true"
       lpeversion="1"
       weight="33.333333"
       steps="2"
       helper_size="0"
       apply_no_weight="true"
       apply_with_weight="true"
       only_selected="false" />
    <inkscape:path-effect
       effect="bspline"
       id="path-effect1899"
       is_visible="true"
       lpeversion="1"
       weight="33.333333"
       steps="2"
       helper_size="0"
       apply_no_weight="true"
       apply_with_weight="true"
       only_selected="false" />
    <inkscape:perspective
       sodipodi:type="inkscape:persp3d"
       inkscape:vp_x="-102.70894 : 19.982688 : 1"
       inkscape:vp_y="0 : 812.81408 : 0"
       inkscape:vp_z="61.131293 : 19.982688 : 1"
       inkscape:persp3d-origin="-20.788831 : 5.0810974 : 1"
       id="perspective1760" />
    <linearGradient
       inkscape:collect="always"
       xlink:href="#linearGradient1953"
       id="linearGradient1955"
       x1="57.938061"
       y1="93.900208"
       x2="26.610607"
       y2="27.528654"
       gradientUnits="userSpaceOnUse" />
    <linearGradient
       inkscape:collect="always"
       xlink:href="#linearGradient1961"
       id="linearGradient1963"
       x1="93.490318"
       y1="60.278915"
       x2="6.1331396"
       y2="20.335171"
       gradientUnits="userSpaceOnUse" />
    <linearGradient
       inkscape:collect="always"
       xlink:href="#linearGradient1969"
       id="linearGradient1971"
       x1="52.41539"
       y1="10.288448"
       x2="87.488693"
       y2="69.24028"
       gradientUnits="userSpaceOnUse" />
    <linearGradient
       inkscape:collect="always"
       xlink:href="#linearGradient1977"
       id="linearGradient1979"
       x1="20.076305"
       y1="54.618431"
       x2="-55.58984"
       y2="-17.579689"
       gradientUnits="userSpaceOnUse" />
    <linearGradient
       inkscape:collect="always"
       xlink:href="#linearGradient1993"
       id="linearGradient1995"
       x1="37.860134"
       y1="29.181946"
       x2="116.01328"
       y2="131.51414"
       gradientUnits="userSpaceOnUse" />
  </defs>
  <sodipodi:namedview
     pagecolor="#ffffff"
     bordercolor="#666666"
     borderopacity="1"
     objecttolerance="10"
     gridtolerance="10"
     guidetolerance="10"
     inkscape:pageopacity="0"
     inkscape:pageshadow="2"
     inkscape:window-width="1516"
     inkscape:window-height="1026"
     id="namedview884"
     showgrid="false"
     inkscape:zoom="1.3772511"
     inkscape:cx="-36.397922"
     inkscape:cy="217.74658"
     inkscape:window-x="199"
     inkscape:window-y="0"
     inkscape:window-maximized="0"
     inkscape:current-layer="svg882"
     inkscape:document-rotation="0" />
  <metadata
     id="metadata864">
    <rdf:RDF>
      <cc:Work
         rdf:about="">
        <dc:format>image/svg+xml</dc:format>
        <dc:type
           rdf:resource="http://purl.org/dc/dcmitype/StillImage" />
        <dc:title />
      </cc:Work>
    </rdf:RDF>
  </metadata>
  <path
     id="rect1790-5-9"
     style="opacity:0.818413;fill:url(#linearGradient1995);fill-opacity:1;stroke:#ffff30;stroke-width:0.282747;stroke-linecap:square;stroke-miterlimit:4;stroke-dasharray:none;stroke-opacity:1;paint-order:markers stroke fill"
     d="M 27.001953 27.251953 L 27.001953 54.632812 L 27.001953 82.015625 L 54.513672 82.015625 L 82.025391 82.015625 L 82.025391 54.632812 L 82.025391 27.251953 L 54.513672 27.251953 L 27.001953 27.251953 z " />
  <path
     style="opacity:0.818413;fill:url(#linearGradient1979);fill-opacity:1;stroke:#ffff30;stroke-width:0.16009;stroke-linecap:square;stroke-miterlimit:4;stroke-dasharray:none;stroke-opacity:1;paint-order:markers stroke fill"
     d="M 1.0939604,64.074619 C 0.99624196,39.456254 0.9530727,15.288405 0.99802868,10.368292 L 1.0797668,1.4226313 13.845187,14.475643 l 12.765421,13.053012 0.0059,27.09835 0.0059,27.098352 L 15.05037,94.160261 C 8.6857723,100.99946 2.9818586,107.0992 2.3750061,107.71523 l -1.1033759,1.12006 z"
     id="path1931" />
  <path
     style="fill:none;stroke:#000000;stroke-width:1px;stroke-linecap:butt;stroke-linejoin:miter;stroke-opacity:1"
     d="m 0.60064434,110.33217 c 0,0 -0.35255245,-110.40404833 -0.35255245,-110.40404833 0,0 109.92855811,0.6389455 109.92855811,0.6389455"
     id="path1921"
     inkscape:path-effect="#path-effect1923"
     inkscape:original-d="M 0.60064434,110.33217 0.24809189,-0.07187833 110.17665,0.56706717" />
  <path
     style="opacity:0.818413;fill:url(#linearGradient1955);fill-opacity:1;stroke:#ffff30;stroke-width:0.16009;stroke-linecap:square;stroke-miterlimit:4;stroke-dasharray:none;stroke-opacity:1;paint-order:markers stroke fill"
     d="m 2.0194235,109.59934 c 0.04795,-0.1179 5.7476246,-6.29301 12.6659445,-13.722464 l 12.578763,-13.508096 27.339557,-4.52e-4 27.339557,-4.52e-4 13.283136,13.42979 13.283139,13.429794 -41.007761,0.15568 c -22.554266,0.0856 -46.534152,0.21753 -53.288636,0.29312 -6.7544846,0.0756 -12.2416492,0.041 -12.1936995,-0.0769 z"
     id="path1925" />
  <path
     style="opacity:0.818413;fill:url(#linearGradient1963);fill-opacity:1;stroke:#ffff30;stroke-width:0.16009;stroke-linecap:square;stroke-miterlimit:4;stroke-dasharray:none;stroke-opacity:1;paint-order:markers stroke fill"
     d="M 95.600731,95.221046 82.328309,81.939807 82.343704,54.73423 82.359098,27.528655 95.866162,14.759786 C 103.29505,7.7369085 109.41801,2.0356973 109.47274,2.0904278 c 0.10223,0.1022306 -0.43888,106.2511522 -0.54216,106.3544322 -0.0316,0.0316 -6.03002,-5.91913 -13.329849,-13.223814 z"
     id="path1927" />
  <path
     style="opacity:0.818413;fill:url(#linearGradient1971);fill-opacity:1;stroke:#ffff30;stroke-width:0.16009;stroke-linecap:square;stroke-miterlimit:4;stroke-dasharray:none;stroke-opacity:1;paint-order:markers stroke fill"
     d="M 14.395803,13.723929 C 7.3182222,6.4915571 1.5422595,0.56626384 1.5603301,0.55661082 1.7067364,0.47840295 84.681847,1.0097692 95.180745,1.1561488 L 108.67496,1.3442902 95.202245,14.115586 81.729532,26.886881 54.49683,26.880289 27.264131,26.873696 Z"
     id="path1929" />
</svg>

<svg xmlns="http://www.w3.org/2000/svg" xmlns:xlink="http://www.w3.org/1999/xlink" width="110" height="110"><defs><linearGradient id="e"><stop offset="0" style="stop-color:#5e5e60;stop-opacity:1"/><stop offset="1" style="stop-color:#5e5e60;stop-opacity:0"/></linearGradient><linearGradient id="d"><stop offset="0" style="stop-color:#5e5e5e;stop-opacity:1"/><stop offset="1" style="stop-color:#5e5e5e;stop-opacity:0"/></linearGradient><linearGradient id="c"><stop offset="0" style="stop-color:#525252;stop-opacity:1"/><stop offset="1" style="stop-color:#999;stop-opacity:0"/></linearGradient><linearGradient id="b"><stop offset="0" style="stop-color:#000;stop-opacity:1"/><stop offset="1" style="stop-color:#000;stop-opacity:0"/></linearGradient><linearGradient id="a"><stop offset="0" style="stop-color:#000;stop-opacity:1"/><stop offset="1" style="stop-color:#000;stop-opacity:0"/></linearGradient><linearGradient xlink:href="#a" id="h" x1="57.938" x2="26.611" y1="93.9" y2="27.529" gradientUnits="userSpaceOnUse"/><linearGradient xlink:href="#b" id="i" x1="93.49" x2="6.133" y1="60.279" y2="20.335" gradientUnits="userSpaceOnUse"/><linearGradient xlink:href="#c" id="j" x1="52.415" x2="87.489" y1="10.288" y2="69.24" gradientUnits="userSpaceOnUse"/><linearGradient xlink:href="#d" id="g" x1="20.076" x2="-55.59" y1="54.618" y2="-17.58" gradientUnits="userSpaceOnUse"/><linearGradient xlink:href="#e" id="f" x1="37.86" x2="116.013" y1="29.182" y2="131.514" gradientUnits="userSpaceOnUse"/></defs><path d="M27.002 27.252v54.764h55.023V27.252H27.002z" style="opacity:.818413;fill:url(#f);fill-opacity:1;stroke:#ffff30;stroke-width:.282747;stroke-linecap:square;stroke-miterlimit:4;stroke-dasharray:none;stroke-opacity:1;paint-order:markers stroke fill"/><path d="M1.094 64.075C.996 39.456.954 15.288.998 10.368l.082-8.945 12.765 13.053 12.766 13.053.006 27.098.005 27.098L15.05 94.16C8.686 101 2.982 107.1 2.375 107.715l-1.103 1.12z" style="opacity:.818413;fill:url(#g);fill-opacity:1;stroke:#ffff30;stroke-width:.16009;stroke-linecap:square;stroke-miterlimit:4;stroke-dasharray:none;stroke-opacity:1;paint-order:markers stroke fill"/><path d="M.6 110.332.249-.072l109.929.64" style="fill:none;stroke:#000;stroke-width:1px;stroke-linecap:butt;stroke-linejoin:miter;stroke-opacity:1"/><path d="M2.02 109.6c.047-.119 5.747-6.294 12.665-13.723l12.58-13.508h27.339l27.34-.001 13.282 13.43 13.284 13.43-41.008.155c-22.555.086-46.534.218-53.289.293-6.754.076-12.242.041-12.194-.077z" style="opacity:.818413;fill:url(#h);fill-opacity:1;stroke:#ffff30;stroke-width:.16009;stroke-linecap:square;stroke-miterlimit:4;stroke-dasharray:none;stroke-opacity:1;paint-order:markers stroke fill"/><path d="M95.6 95.221 82.329 81.94l.016-27.206.015-27.205 13.507-12.77c7.43-7.022 13.552-12.723 13.607-12.669.102.103-.44 106.252-.542 106.355-.032.031-6.03-5.92-13.33-13.224z" style="opacity:.818413;fill:url(#i);fill-opacity:1;stroke:#ffff30;stroke-width:.16009;stroke-linecap:square;stroke-miterlimit:4;stroke-dasharray:none;stroke-opacity:1;paint-order:markers stroke fill"/><path d="M14.396 13.724C7.318 6.492 1.542.566 1.56.557c.147-.079 83.122.453 93.62.6l13.495.187-13.473 12.772-13.472 12.77-27.233-.006-27.233-.006Z" style="opacity:.818413;fill:url(#j);fill-opacity:1;stroke:#ffff30;stroke-width:.16009;stroke-linecap:square;stroke-miterlimit:4;stroke-dasharray:none;stroke-opacity:1;paint-order:markers stroke fill"/></svg>
